X:11006
T:Kid on the Mountain, The
R:SlipJig
C:Trad. O'Neills 1850
O:Ireland
M:9/8
L:1/8
Q:1/8=200
K:Em
"Em"E2E FEF G2 F|E2E BcA BGE|E>FE FEF G2 A|"C"BAG FAG "D"FED:|
|:"G"BGB "D"AGF "G"G2 D|GAB dge "D7"dBA|"G"BGB "D"AGF "G"G2 A|"C"BAG FAG "D"FED:|
|:"Em"gfg eBd e2 f|gfg efg "D7"afd|"Em"g2g eBd e2 a|"C"bag fag "D"fed:|
|:"Em"eBB e2f g2f|eBB efg "D"afd|"Em"eBB e2f g2a|bag "C"fag "D"fed:|
|:"G"edB "D7"dBA "G"G2D|"G"GAB dge "D7"dBA|"G"edB "D7"dBA "G"G2A|"C"BAG FAG "D"FED:|

